X: 8658
T: Cross Of Savannagh, The
R: three-two
M: 3/2
K: Gminor
|:D2|G2 G^FGB A2^F2 D2|G2 GABc d4 d2|
cB AcBA AGG^F D2|CD G2^F2 [1 G4:|2 G3||
|:ABc|dc BdcB A2^F2 D2|ED CEGD ^F4^F2|
[1 GA B2G2 ABc2 A2|BA BcdB A3:|
[2 G^F GAB2 AGG^F D2|CD G2^F2 G4||
|:D2|B2 d2cA B2A2 G2|c2 cBAG ^F4 A2|
[1 B2 BAG2 cBA2 dc|B2 cBAG ^F4:|
[2 G^F GAB2 AGG^F D2|CD G2^F2 G4||

